X:1
T: Ernie
C:Bruce Shawyer
R:Reel
Q:232
K:Em
M:4/4
L:1/8
E2|:"Em"G2G2 G2AB|"D"A2A2 A2Bc|"G"BA GA Bc dc|"B7"BA GF ^D2B,2|
"Em"G2G2 G2AB|"D"A2A2 A2Bc|"B7"BA GF GF E^D|"Em"E4 E2E2:|
|:"Em"e2e2 e2dB|"D"d2d2 d4|"G"BA GA Bc dc|"B7"B^c^de d2B2|
"Em"e2e2 e2dB|"D"d2d2 d4|"B7"BA GA B^c ^dB|1"Em"e4 e2B2:|2"Em"e4 e2||
